X:49
T:3) Zerrissener Kihl
S:Cathy Goss
O:Germany
N:MMMMVV || VVVVMMMMVV
M:4/4
I:speed 280
A:Bavaria
K:GMix
D|\
G2B2 A2c2|\
M:3/8
d3cBA|B2G2D2|\
M:4/4
G2B2 A2c2|\
M:3/8
d3cBA|G4d2|\
c2A2d2|B2G2d2|c2A2d2|B2G2D2|
M:4/4
G2B2 A2c2|\
M:3/8
d3cBA|G4::\
G2|\
M:4/4
c2e2 d2f2|\
M:3/8
g3fed|e2c2G2|
M:4/4
c2e2 d2f2|\
M:3/8
g3fed|c4g2|\
f2d2g2| e2c2g2| f2d2g2| e2c2G2|\
M:4/4
c2e2 d2f2|\
M:3/8
g3fed|c4:|
